public/img/partner-section-2.svg

<svg width="114" height="105" viewBox="0 0 114 105" fill="none" xmlns="http://www.w3.org/2000/svg">
<path d="M0.8125 88.3203L18.9375 67.8516H109.562L91.4375 88.3203H0.8125Z" fill="#FAA037"/>
<path d="M59.1148 70.9219H21.5655C20.6042 70.9219 19.6821 71.3533 19.0021 72.1208L8.92351 83.5027C8.35257 84.1475 8.75699 85.2497 9.56423 85.2497H46.4273L59.1148 70.9219Z" fill="#A55023"/>
<path d="M100.812 70.9219H62.7402L50.0527 85.25H88.8106C89.7719 85.25 90.694 84.8186 91.3739 84.051L101.453 72.6691C102.023 72.0244 101.619 70.9219 100.812 70.9219Z" fill="#A55023"/>
<path d="M22.4859 85.25H22.6391C23.0707 82.346 25.3059 80.1328 28 80.1328C28 76.7414 25.5656 73.9922 22.5625 73.9922C19.5594 73.9922 17.125 76.7414 17.125 80.1328C19.8191 80.1328 22.0543 82.346 22.4859 85.25Z" fill="#F5871E"/>
<path d="M33.3609 85.25H33.5141C33.9457 82.346 36.1809 80.1328 38.875 80.1328C38.875 76.7414 36.4406 73.9922 33.4375 73.9922C30.4344 73.9922 28 76.7414 28 80.1328C30.6941 80.1328 32.9293 82.346 33.3609 85.25Z" fill="#F5871E"/>
<path d="M44.2359 85.25H46.427L49.5706 81.7C49.6872 81.1995 49.75 80.6745 49.75 80.1328C49.75 76.7414 47.3156 73.9922 44.3125 73.9922C41.3094 73.9922 38.875 76.7414 38.875 80.1328C41.5691 80.1328 43.8043 82.346 44.2359 85.25Z" fill="#F5871E"/>
<path d="M22.4855 85.25C22.0539 82.346 19.8187 80.1328 17.1246 80.1328C14.4305 80.1328 12.1953 82.346 11.7637 85.25H22.4855Z" fill="#FABE19"/>
<path d="M22.6387 85.25H33.3605C32.9289 82.346 30.6937 80.1328 27.9996 80.1328C25.3055 80.1328 23.0703 82.346 22.6387 85.25Z" fill="#FABE19"/>
<path d="M33.5137 85.25H44.2355C43.8039 82.346 41.5687 80.1328 38.8746 80.1328C36.1805 80.1328 33.9453 82.346 33.5137 85.25Z" fill="#FABE19"/>
<path d="M71.5 80.1328C71.5 76.7414 69.0656 73.9922 66.0625 73.9922C63.0594 73.9922 60.625 76.7414 60.625 80.1328C63.3191 80.1328 65.5543 82.346 65.9859 85.25H66.1391C66.5707 82.346 68.8059 80.1328 71.5 80.1328Z" fill="#69A041"/>
<path d="M82.375 80.1328C82.375 76.7414 79.9406 73.9922 76.9375 73.9922C73.9344 73.9922 71.5 76.7414 71.5 80.1328C74.1941 80.1328 76.4293 82.346 76.8609 85.25H77.0141C77.4457 82.346 79.6809 80.1328 82.375 80.1328Z" fill="#69A041"/>
<path d="M93.25 80.1328C93.25 76.7414 90.8156 73.9922 87.8125 73.9922C84.8094 73.9922 82.375 76.7414 82.375 80.1328C85.0691 80.1328 87.3043 82.346 87.7359 85.25H88.8098C89.7711 85.25 90.6932 84.8186 91.3732 84.051L92.8857 82.3429C93.1202 81.657 93.25 80.9122 93.25 80.1328Z" fill="#69A041"/>
<path d="M60.6246 80.1328C57.9305 80.1328 55.6953 82.346 55.2637 85.25H65.9855C65.5539 82.346 63.3187 80.1328 60.6246 80.1328Z" fill="#91B945"/>
<path d="M71.4996 80.1328C68.8055 80.1328 66.5703 82.346 66.1387 85.25H76.8605C76.4289 82.346 74.1936 80.1328 71.4996 80.1328Z" fill="#91B945"/>
<path d="M82.3746 80.1328C79.6805 80.1328 77.4453 82.346 77.0137 85.25H87.7355C87.3039 82.346 85.0687 80.1328 82.3746 80.1328Z" fill="#91B945"/>
<path d="M4.4375 104.695H95.0625C93.0604 104.695 91.4375 102.863 91.4375 100.602V88.3203H0.8125V100.602C0.8125 102.863 2.43537 104.695 4.4375 104.695Z" fill="#D26E28"/>
<path d="M109.562 31.0078V67.8516L91.4375 88.3203V100.602C91.4375 102.862 93.0604 104.695 95.0625 104.695H109.562C111.565 104.695 113.188 102.862 113.188 100.602V31.0078H109.562Z" fill="#A55023"/>
<path d="M18.9375 31.0078H26.1875V67.8516H18.9375V31.0078Z" fill="#D26E28"/>
<path d="M105.938 31.0078H109.562V67.8516H105.938V31.0078Z" fill="#D26E28"/>
<path d="M22.5625 31.0078H26.1875V67.8516H22.5625V31.0078Z" fill="#A55023"/>
<path d="M82.375 41.2422C87.38 41.2422 91.4375 36.66 91.4375 31.0078H73.3125C73.3125 36.66 77.37 41.2422 82.375 41.2422Z" fill="#4B55A5"/>
<path d="M91.4375 31.0078H73.3125V28.9609C73.3125 23.3087 77.37 18.7266 82.375 18.7266H100.5C95.495 18.7266 91.4375 23.3087 91.4375 28.9609V31.0078Z" fill="#6478B9"/>
<path d="M64.25 41.2422C69.255 41.2422 73.3125 36.66 73.3125 31.0078H55.1875C55.1875 36.66 59.245 41.2422 64.25 41.2422Z" fill="#69A041"/>
<path d="M73.3125 31.0078H55.1875V28.9609C55.1875 23.3087 59.245 18.7266 64.25 18.7266H82.375C77.37 18.7266 73.3125 23.3087 73.3125 28.9609V31.0078Z" fill="#91B945"/>
<path d="M46.125 41.2422C51.13 41.2422 55.1875 36.66 55.1875 31.0078H37.0625C37.0625 36.66 41.12 41.2422 46.125 41.2422Z" fill="#4B55A5"/>
<path d="M55.1875 31.0078H37.0625V28.9609C37.0625 23.3087 41.12 18.7266 46.125 18.7266H64.25C59.245 18.7266 55.1875 23.3087 55.1875 28.9609V31.0078Z" fill="#6478B9"/>
<path d="M28 41.2422C33.005 41.2422 37.0625 36.66 37.0625 31.0078H18.9375C18.9375 36.66 22.995 41.2422 28 41.2422Z" fill="#69A041"/>
<path d="M37.0625 31.0078H18.9375V28.9609C18.9375 23.3087 22.995 18.7266 28 18.7266H46.125C41.12 18.7266 37.0625 23.3087 37.0625 28.9609V31.0078Z" fill="#91B945"/>
<path d="M9.875 41.2422C14.88 41.2422 18.9375 36.66 18.9375 31.0078H0.8125C0.8125 36.66 4.87001 41.2422 9.875 41.2422Z" fill="#4B55A5"/>
<path d="M18.9375 31.0078H0.8125V28.9609C0.8125 23.3087 4.87001 18.7266 9.875 18.7266H28.6042H28C22.995 18.7266 18.9375 23.3087 18.9375 28.9609V31.0078Z" fill="#6478B9"/>
<path d="M104.125 18.7266H100.5C95.495 18.7266 91.4375 23.3087 91.4375 28.9609V31.0078H113.188V28.9609C113.188 23.3087 109.13 18.7266 104.125 18.7266Z" fill="#4B55A5"/>
<path d="M15.9158 6.44531H11.0825C11.0825 6.87362 10.9085 7.28121 10.6049 7.53809C9.40258 8.55513 8.63226 10.1873 8.66715 12.0236C8.72085 14.847 10.7409 17.206 13.2381 17.3544C16.0261 17.5199 18.3325 15.0161 18.3325 11.9038C18.3325 10.1177 17.5708 8.53543 16.3961 7.54039C16.0916 7.28223 15.9158 6.87516 15.9158 6.44531Z" fill="#FABE19"/>
<path d="M15.9155 6.44531H11.082V5.08081C11.082 3.57355 12.1641 2.35156 13.4988 2.35156C14.8335 2.35156 15.9155 3.57355 15.9155 5.08081V6.44531Z" fill="#55525B"/>
<path d="M11.989 11.9038C12.8232 11.9038 13.4995 11.1401 13.4995 10.198C13.4995 9.25591 12.8232 8.49219 11.989 8.49219C11.1548 8.49219 10.4785 9.25591 10.4785 10.198C10.4785 11.1401 11.1548 11.9038 11.989 11.9038Z" fill="#FFDC37"/>
<path d="M15.9167 6.44531H13.5V2.35156C14.8347 2.35156 15.9167 3.57355 15.9167 5.08081V6.44531Z" fill="#353744"/>
<path d="M37.6658 6.44531H32.8325C32.8325 6.87362 32.6585 7.28121 32.3549 7.53809C31.1526 8.55513 30.3823 10.1873 30.4172 12.0236C30.4708 14.847 32.4909 17.206 34.9881 17.3544C37.7761 17.5199 40.0825 15.0161 40.0825 11.9038C40.0825 10.1177 39.3208 8.53543 38.1461 7.54039C37.8416 7.28223 37.6658 6.87516 37.6658 6.44531Z" fill="#FABE19"/>
<path d="M37.6653 6.44531H32.832V5.08081C32.8318 3.57355 33.9139 2.35156 35.2485 2.35156C36.5832 2.35156 37.6653 3.57355 37.6653 5.08081V6.44531Z" fill="#55525B"/>
<path d="M33.739 11.9038C34.5732 11.9038 35.2495 11.1401 35.2495 10.198C35.2495 9.25591 34.5732 8.49219 33.739 8.49219C32.9048 8.49219 32.2285 9.25591 32.2285 10.198C32.2285 11.1401 32.9048 11.9038 33.739 11.9038Z" fill="#FFDC37"/>
<path d="M37.6667 6.44531H35.25V2.35156C36.5847 2.35156 37.6667 3.57355 37.6667 5.08081V6.44531Z" fill="#353744"/>
<path d="M59.4158 6.44531H54.5825C54.5825 6.87362 54.4085 7.28121 54.1049 7.53809C52.9026 8.55513 52.1323 10.1873 52.1672 12.0236C52.2208 14.847 54.2409 17.206 56.738 17.3544C59.5261 17.5199 61.8325 15.0161 61.8325 11.9038C61.8325 10.1177 61.0708 8.53543 59.8961 7.54039C59.5914 7.28223 59.4158 6.87516 59.4158 6.44531Z" fill="#FABE19"/>
<path d="M59.4153 6.44531H54.582V5.08081C54.582 3.57355 55.6641 2.35156 56.9988 2.35156C58.3335 2.35156 59.4155 3.57355 59.4155 5.08081V6.44531H59.4153Z" fill="#55525B"/>
<path d="M55.489 11.9038C56.3232 11.9038 56.9995 11.1401 56.9995 10.198C56.9995 9.25591 56.3232 8.49219 55.489 8.49219C54.6548 8.49219 53.9785 9.25591 53.9785 10.198C53.9785 11.1401 54.6548 11.9038 55.489 11.9038Z" fill="#FFDC37"/>
<path d="M59.4165 6.44531H57V2.35156C58.3347 2.35156 59.4167 3.57355 59.4167 5.08081V6.44531H59.4165Z" fill="#353744"/>
<path d="M81.1677 6.44531H76.3345C76.3345 6.87362 76.1605 7.28121 75.8569 7.53809C74.6545 8.55513 73.8842 10.1873 73.9191 12.0236C73.9728 14.847 75.9928 17.206 78.49 17.3544C81.2781 17.5199 83.5845 15.0161 83.5845 11.9038C83.5845 10.1177 82.8228 8.53543 81.6481 7.54039C81.3436 7.28223 81.1677 6.87516 81.1677 6.44531Z" fill="#FABE19"/>
<path d="M81.1672 6.44531H76.334V5.08081C76.334 3.57355 77.416 2.35156 78.7507 2.35156C80.0854 2.35156 81.1675 3.57355 81.1675 5.08081V6.44531H81.1672Z" fill="#55525B"/>
<path d="M77.241 11.9038C78.0752 11.9038 78.7514 11.1401 78.7514 10.198C78.7514 9.25591 78.0752 8.49219 77.241 8.49219C76.4067 8.49219 75.7305 9.25591 75.7305 10.198C75.7305 11.1401 76.4067 11.9038 77.241 11.9038Z" fill="#FFDC37"/>
<path d="M81.1665 6.44531H78.75V2.35156C80.0847 2.35156 81.1667 3.57355 81.1667 5.08081V6.44531H81.1665Z" fill="#353744"/>
<path d="M102.916 6.44531H98.0825C98.0825 6.87362 97.9085 7.28121 97.6049 7.53809C96.4026 8.55513 95.6323 10.1873 95.6672 12.0236C95.7208 14.847 97.7409 17.206 100.238 17.3544C103.026 17.5199 105.333 15.0161 105.333 11.9038C105.333 10.1177 104.571 8.53543 103.396 7.54039C103.092 7.28223 102.916 6.87516 102.916 6.44531Z" fill="#FABE19"/>
<path d="M102.915 6.44531H98.082V5.08081C98.0818 3.57355 99.1639 2.35156 100.499 2.35156C101.833 2.35156 102.915 3.57355 102.915 5.08081V6.44531Z" fill="#55525B"/>
<path d="M98.989 11.9038C99.8232 11.9038 100.5 11.1401 100.5 10.198C100.5 9.25591 99.8232 8.49219 98.989 8.49219C98.1548 8.49219 97.4785 9.25591 97.4785 10.198C97.4785 11.1401 98.1548 11.9038 98.989 11.9038Z" fill="#FFDC37"/>
<path d="M102.917 6.44531H100.5V2.35156C101.835 2.35156 102.917 3.57355 102.917 5.08081V6.44531Z" fill="#353744"/>
<path d="M0.8125 0.304688H113.188V2.35156H0.8125V0.304688Z" fill="#353744"/>
</svg>

<svg width="114" height="105" fill="none" xmlns="http://www.w3.org/2000/svg"><path d="M.813 88.32l18.125-20.468h90.624L91.438 88.32H.811z" fill="#FAA037"/><path d="M59.115 70.922h-37.55c-.96 0-1.883.431-2.563 1.199L8.924 83.503c-.571.644-.167 1.747.64 1.747h36.863l12.688-14.328zm41.697 0H62.74L50.053 85.25H88.81c.96 0 1.883-.431 2.563-1.199l10.079-11.382c.57-.645.166-1.747-.641-1.747z" fill="#A55023"/><path d="M22.486 85.25h.153c.432-2.904 2.667-5.117 5.361-5.117 0-3.392-2.434-6.14-5.438-6.14-3.003 0-5.437 2.748-5.437 6.14 2.694 0 4.93 2.213 5.36 5.117z" fill="#F5871E"/><path d="M33.36 85.25h.154c.432-2.904 2.667-5.117 5.361-5.117 0-3.392-2.434-6.14-5.438-6.14-3.003 0-5.437 2.748-5.437 6.14 2.694 0 4.93 2.213 5.36 5.117zm10.876 0h2.191l3.144-3.55c.116-.5.179-1.026.179-1.567 0-3.392-2.434-6.14-5.438-6.14-3.003 0-5.437 2.748-5.437 6.14 2.694 0 4.93 2.213 5.36 5.117z" fill="#F5871E"/><path d="M22.485 85.25c-.431-2.904-2.666-5.117-5.36-5.117-2.694 0-4.93 2.213-5.361 5.117h10.721zm.154 0H33.36c-.432-2.904-2.667-5.117-5.361-5.117-2.695 0-4.93 2.213-5.361 5.117zm10.875 0h10.721c-.431-2.904-2.666-5.117-5.36-5.117-2.694 0-4.93 2.213-5.361 5.117z" fill="#FABE19"/><path d="M71.5 80.133c0-3.392-2.434-6.14-5.438-6.14-3.003 0-5.437 2.748-5.437 6.14 2.694 0 4.93 2.213 5.36 5.117h.154c.432-2.904 2.667-5.117 5.361-5.117zm10.875 0c0-3.392-2.434-6.14-5.438-6.14-3.003 0-5.437 2.748-5.437 6.14 2.694 0 4.93 2.213 5.36 5.117h.154c.432-2.904 2.667-5.117 5.361-5.117zm10.875 0c0-3.392-2.434-6.14-5.438-6.14-3.003 0-5.437 2.748-5.437 6.14 2.694 0 4.93 2.213 5.36 5.117h1.075c.961 0 1.883-.431 2.563-1.199l1.513-1.708c.234-.686.364-1.43.364-2.21z" fill="#69A041"/><path d="M60.625 80.133c-2.694 0-4.93 2.213-5.361 5.117h10.721c-.431-2.904-2.666-5.117-5.36-5.117zm10.875 0c-2.695 0-4.93 2.213-5.361 5.117H76.86c-.432-2.904-2.667-5.117-5.361-5.117zm10.875 0c-2.695 0-4.93 2.213-5.361 5.117h10.722c-.432-2.904-2.667-5.117-5.361-5.117z" fill="#91B945"/><path d="M4.438 104.695h90.624c-2.002 0-3.624-1.832-3.624-4.093V88.32H.811v12.282c0 2.261 1.623 4.093 3.625 4.093z" fill="#D26E28"/><path d="M109.562 31.008v36.844L91.438 88.32v12.282c0 2.26 1.622 4.093 3.624 4.093h14.5c2.003 0 3.626-1.833 3.626-4.093V31.008h-3.626z" fill="#A55023"/><path d="M18.938 31.008h7.25v36.844h-7.25V31.008zm87 0h3.624v36.844h-3.624V31.008z" fill="#D26E28"/><path d="M22.563 31.008h3.625v36.844h-3.625V31.008z" fill="#A55023"/><path d="M82.375 41.242c5.005 0 9.063-4.582 9.063-10.234H73.311c0 5.652 4.058 10.234 9.063 10.234z" fill="#4B55A5"/><path d="M91.438 31.008H73.311V28.96c0-5.652 4.058-10.234 9.063-10.234H100.5c-5.005 0-9.063 4.582-9.063 10.234v2.047z" fill="#6478B9"/><path d="M64.25 41.242c5.005 0 9.063-4.582 9.063-10.234H55.186c0 5.652 4.058 10.234 9.063 10.234z" fill="#69A041"/><path d="M73.313 31.008H55.186V28.96c0-5.652 4.058-10.234 9.063-10.234h18.125c-5.005 0-9.063 4.582-9.063 10.234v2.047z" fill="#91B945"/><path d="M46.125 41.242c5.005 0 9.063-4.582 9.063-10.234H37.061c0 5.652 4.058 10.234 9.063 10.234z" fill="#4B55A5"/><path d="M55.188 31.008H37.061V28.96c0-5.652 4.058-10.234 9.063-10.234H64.25c-5.005 0-9.063 4.582-9.063 10.234v2.047z" fill="#6478B9"/><path d="M28 41.242c5.005 0 9.063-4.582 9.063-10.234H18.936c0 5.652 4.058 10.234 9.063 10.234z" fill="#69A041"/><path d="M37.063 31.008H18.936V28.96c0-5.652 4.058-10.234 9.063-10.234h18.125c-5.005 0-9.063 4.582-9.063 10.234v2.047z" fill="#91B945"/><path d="M9.875 41.242c5.005 0 9.063-4.582 9.063-10.234H.813c0 5.652 4.057 10.234 9.062 10.234z" fill="#4B55A5"/><path d="M18.938 31.008H.813V28.96c0-5.652 4.057-10.234 9.062-10.234h18.73H28c-5.005 0-9.063 4.582-9.063 10.234v2.047z" fill="#6478B9"/><path d="M104.125 18.727H100.5c-5.005 0-9.063 4.582-9.063 10.234v2.047h21.751V28.96c0-5.652-4.058-10.234-9.063-10.234z" fill="#4B55A5"/><path d="M15.916 6.445h-4.834c0 .429-.174.836-.477 1.093-1.202 1.017-1.973 2.65-1.938 4.486.054 2.823 2.074 5.182 4.571 5.33 2.788.166 5.095-2.338 5.095-5.45 0-1.786-.762-3.369-1.937-4.364-.304-.258-.48-.665-.48-1.095z" fill="#FABE19"/><path d="M15.915 6.445h-4.833V5.081c0-1.507 1.082-2.73 2.417-2.73 1.335 0 2.416 1.223 2.416 2.73v1.364z" fill="#55525B"/><path d="M11.989 11.904c.834 0 1.51-.764 1.51-1.706s-.676-1.706-1.51-1.706-1.51.764-1.51 1.706.676 1.706 1.51 1.706z" fill="#FFDC37"/><path d="M15.917 6.445H13.5V2.352c1.335 0 2.417 1.222 2.417 2.729v1.364z" fill="#353744"/><path d="M37.666 6.445h-4.833c0 .429-.175.836-.478 1.093-1.202 1.017-1.973 2.65-1.938 4.486.054 2.823 2.074 5.182 4.571 5.33 2.788.166 5.095-2.338 5.095-5.45 0-1.786-.762-3.369-1.937-4.364-.304-.258-.48-.665-.48-1.095z" fill="#FABE19"/><path d="M37.665 6.445h-4.833V5.081c0-1.507 1.082-2.73 2.416-2.73 1.335 0 2.417 1.223 2.417 2.73v1.364z" fill="#55525B"/><path d="M33.739 11.904c.834 0 1.51-.764 1.51-1.706s-.676-1.706-1.51-1.706-1.51.764-1.51 1.706.676 1.706 1.51 1.706z" fill="#FFDC37"/><path d="M37.667 6.445H35.25V2.352c1.335 0 2.417 1.222 2.417 2.729v1.364z" fill="#353744"/><path d="M59.416 6.445h-4.833c0 .429-.175.836-.478 1.093-1.202 1.017-1.973 2.65-1.938 4.486.054 2.823 2.074 5.182 4.571 5.33 2.788.166 5.095-2.338 5.095-5.45 0-1.786-.762-3.369-1.937-4.364-.305-.258-.48-.665-.48-1.095z" fill="#FABE19"/><path d="M59.415 6.445h-4.833V5.081c0-1.507 1.082-2.73 2.417-2.73 1.334 0 2.416 1.223 2.416 2.73v1.364z" fill="#55525B"/><path d="M55.489 11.904c.834 0 1.51-.764 1.51-1.706s-.676-1.706-1.51-1.706-1.51.764-1.51 1.706.676 1.706 1.51 1.706z" fill="#FFDC37"/><path d="M59.416 6.445H57V2.352c1.335 0 2.417 1.222 2.417 2.729v1.364z" fill="#353744"/><path d="M81.168 6.445h-4.834c0 .429-.174.836-.477 1.093-1.203 1.017-1.973 2.65-1.938 4.486.054 2.823 2.074 5.182 4.571 5.33 2.788.166 5.095-2.338 5.095-5.45 0-1.786-.762-3.369-1.937-4.364-.304-.258-.48-.665-.48-1.095z" fill="#FABE19"/><path d="M81.167 6.445h-4.833V5.081c0-1.507 1.082-2.73 2.417-2.73 1.334 0 2.416 1.223 2.416 2.73v1.364z" fill="#55525B"/><path d="M77.241 11.904c.834 0 1.51-.764 1.51-1.706s-.676-1.706-1.51-1.706-1.51.764-1.51 1.706.676 1.706 1.51 1.706z" fill="#FFDC37"/><path d="M81.166 6.445H78.75V2.352c1.335 0 2.417 1.222 2.417 2.729v1.364z" fill="#353744"/><path d="M102.916 6.445h-4.834c0 .429-.173.836-.477 1.093-1.202 1.017-1.973 2.65-1.938 4.486.054 2.823 2.074 5.182 4.571 5.33 2.788.166 5.095-2.338 5.095-5.45 0-1.786-.762-3.369-1.937-4.364-.304-.258-.48-.665-.48-1.095z" fill="#FABE19"/><path d="M102.915 6.445h-4.833V5.081c0-1.507 1.082-2.73 2.417-2.73 1.334 0 2.416 1.223 2.416 2.73v1.364z" fill="#55525B"/><path d="M98.989 11.904c.834 0 1.511-.764 1.511-1.706s-.677-1.706-1.511-1.706c-.834 0-1.51.764-1.51 1.706s.676 1.706 1.51 1.706z" fill="#FFDC37"/><path d="M102.917 6.445H100.5V2.352c1.335 0 2.417 1.222 2.417 2.729v1.364z" fill="#353744"/><path d="M.813.305h112.375v2.047H.812V.305z" fill="#353744"/></svg>
